styles/2/Numix/256/places/default-folder-recent.svg

<?xml version="1.0" encoding="UTF-8" standalone="no"?>
<svg
   xmlns:dc="http://purl.org/dc/elements/1.1/"
   xmlns:cc="http://creativecommons.org/ns#"
   xmlns:rdf="http://www.w3.org/1999/02/22-rdf-syntax-ns#"
   xmlns:svg="http://www.w3.org/2000/svg"
   xmlns="http://www.w3.org/2000/svg"
   xmlns:sodipodi="http://sodipodi.sourceforge.net/DTD/sodipodi-0.dtd"
   xmlns:inkscape="http://www.inkscape.org/namespaces/inkscape"
   width="256px"
   height="256px"
   viewBox="0 0 256 256"
   version="1.1"
   id="svg6328"
   inkscape:version="0.91 r"
   sodipodi:docname="default-folder-recent.svg">
  <metadata
     id="metadata6341">
    <rdf:RDF>
      <cc:Work
         rdf:about="">
        <dc:format>image/svg+xml</dc:format>
        <dc:type
           rdf:resource="http://purl.org/dc/dcmitype/StillImage" />
      </cc:Work>
    </rdf:RDF>
  </metadata>
  <defs
     id="defs6339" />
  <sodipodi:namedview
     pagecolor="#ffffff"
     bordercolor="#666666"
     borderopacity="1"
     objecttolerance="10"
     gridtolerance="10"
     guidetolerance="10"
     inkscape:pageopacity="0"
     inkscape:pageshadow="2"
     inkscape:window-width="640"
     inkscape:window-height="480"
     id="namedview6337" />
  <g
     id="surface1">
    <path
       style=" stroke:none;fill-rule:nonzero;fill:rgb(91.372549%,69.019608%,50.196078%);fill-opacity:1;"
       d="M 36 32 C 30.140625 32 24 38.046875 24 44 L 24 48 L 12 48 C 6.117188 48 0 53.984375 0 60 L 0 212 C 0 220 4 224 12 224 L 244 224 C 250.273438 224 256 218.570312 256 212 L 256 80 C 256 73.976562 250.179688 68 244 68 L 232 68 L 232 44 C 232 38.15625 226.1875 32 220 32 Z M 36 32 "
       id="path6331" />
    <path
       style=" stroke:none;fill-rule:nonzero;fill:rgb(0%,0%,0%);fill-opacity:0.321569;"
       d="M 36 32 C 30.140625 32 24 38.046875 24 44 L 24 48 L 12 48 C 6.117188 48 0 53.984375 0 60 L 0 212 C 0 220 4 224 12 224 L 244 224 C 250.273438 224 256 218.570312 256 212 L 256 80 C 256 73.976562 250.179688 68 244 68 L 232 68 L 232 44 C 232 38.15625 226.1875 32 220 32 Z M 12 56 L 148 56 C 150.359375 56 152 58.0625 152 60 L 152 76 L 244 76 C 246.023438 76 248 78.03125 248 80 L 248 212 C 248 214.085938 246.085938 216 244 216 L 12 216 C 10.140625 216 8 214.414062 8 212 L 8 60 C 8 58.03125 10.0625 56 12 56 Z M 12 56 "
       id="path6333" />
    <path
       style=" stroke:none;fill-rule:nonzero;fill:rgb(0%,0%,0%);fill-opacity:0.321569;"
       d="M 72 92 L 72 132 L 112 132 L 96.875 116.875 C 104.84375 108.914062 115.851562 104 128 104 C 152.296875 104 172 123.703125 172 148 C 172 172.296875 152.296875 192 128 192 C 103.703125 192 84 172.296875 84 148 C 84 146.648438 84.132812 145.320312 84.25 144 L 72.125 144 C 72.03125 145.320312 72 146.65625 72 148 C 72 178.929688 97.070312 204 128 204 C 158.929688 204 184 178.929688 184 148 C 184 117.070312 158.929688 92 128 92 C 112.515625 92 98.507812 98.21875 88.375 108.375 Z M 127.25 111.75 C 126.914062 111.8125 126.578125 111.898438 126.25 112 C 122.523438 112.835938 119.90625 116.1875 120 120 L 120 149.5 C 119.984375 149.75 119.984375 150 120 150.25 C 119.53125 152.304688 119.890625 154.460938 121 156.25 C 121.078125 156.335938 121.164062 156.421875 121.25 156.5 C 121.328125 156.671875 121.414062 156.835938 121.5 157 C 121.578125 157.085938 121.664062 157.171875 121.75 157.25 C 121.828125 157.335938 121.914062 157.421875 122 157.5 C 122.078125 157.585938 122.164062 157.671875 122.25 157.75 C 122.328125 157.835938 122.414062 157.921875 122.5 158 C 122.664062 158.085938 122.828125 158.171875 123 158.25 C 123.078125 158.335938 123.164062 158.421875 123.25 158.5 C 123.328125 158.585938 123.414062 158.671875 123.5 158.75 C 123.664062 158.835938 123.828125 158.921875 124 159 C 124.320312 159.1875 124.65625 159.359375 125 159.5 L 144.75 171 C 148.617188 173.210938 153.539062 171.867188 155.75 168 C 157.960938 164.132812 156.617188 159.210938 152.75 157 L 136 147.25 L 136 120 C 136.078125 117.695312 135.171875 115.476562 133.492188 113.890625 C 131.820312 112.3125 129.539062 111.53125 127.25 111.75 Z M 127.25 111.75 "
       id="path6335" />
  </g>
</svg>

<svg xmlns="http://www.w3.org/2000/svg" viewBox="0 0 256 256">
 <g>
  <path d="m 36 32 c -5.859 0 -12 6.05 -12 12 l 0 4 l -12 0 c -5.883 0 -12 5.984 -12 12 l 0 152 c 0 8 4 12 12 12 l 232 0 c 6.273 0 12 -5.43 12 -12 l 0 -132 c 0 -6.02 -5.82 -12 -12 -12 l -12 0 l 0 -24 c 0 -5.844 -5.813 -12 -12 -12 m -184 0" style="fill:#e8b07f;fill-opacity:1;stroke:none;fill-rule:nonzero"/>
  <path d="m 36 32 c -5.859 0 -12 6.05 -12 12 l 0 4 l -12 0 c -5.883 0 -12 5.984 -12 12 l 0 152 c 0 8 4 12 12 12 l 232 0 c 6.273 0 12 -5.43 12 -12 l 0 -132 c 0 -6.02 -5.82 -12 -12 -12 l -12 0 l 0 -24 c 0 -5.844 -5.813 -12 -12 -12 m -208 24 l 136 0 c 2.359 0 4 2.063 4 4 l 0 16 l 92 0 c 2.023 0 4 2.031 4 4 l 0 132 c 0 2.086 -1.914 4 -4 4 l -232 0 c -1.859 0 -4 -1.586 -4 -4 l 0 -152 c 0 -1.969 2.063 -4 4 -4 m 0 0" style="fill:#000;fill-opacity:0.322;stroke:none;fill-rule:nonzero"/>
  <path d="m 72 92 l 0 40 l 40 0 l -15.12 -15.12 c 7.969 -7.961 18.977 -12.875 31.13 -12.875 c 24.297 0 44 19.703 44 44 c 0 24.297 -19.703 44 -44 44 c -24.297 0 -44 -19.703 -44 -44 c 0 -1.352 0.133 -2.68 0.25 -4 l -12.12 0 c -0.094 1.32 -0.125 2.656 -0.125 4 c 0 30.93 25.07 56 56 56 c 30.93 0 56 -25.07 56 -56 c 0 -30.93 -25.07 -56 -56 -56 c -15.484 0 -29.492 6.219 -39.625 16.375 m 38.875 3.375 c -0.336 0.063 -0.672 0.148 -1 0.25 c -3.727 0.836 -6.344 4.188 -6.25 8 l 0 29.5 c -0.016 0.25 -0.016 0.5 0 0.75 c -0.469 2.055 -0.109 4.211 1 6 c 0.078 0.086 0.164 0.172 0.25 0.25 c 0.078 0.172 0.164 0.336 0.25 0.5 c 0.078 0.086 0.164 0.172 0.25 0.25 c 0.078 0.086 0.164 0.172 0.25 0.25 c 0.078 0.086 0.164 0.172 0.25 0.25 c 0.078 0.086 0.164 0.172 0.25 0.25 c 0.164 0.086 0.328 0.172 0.5 0.25 c 0.078 0.086 0.164 0.172 0.25 0.25 c 0.078 0.086 0.164 0.172 0.25 0.25 c 0.164 0.086 0.328 0.172 0.5 0.25 c 0.32 0.188 0.656 0.359 1 0.5 l 19.75 11.5 c 3.867 2.211 8.789 0.867 11 -3 c 2.211 -3.867 0.867 -8.789 -3 -11 l -16.75 -9.75 l 0 -27.25 c 0.078 -2.305 -0.828 -4.523 -2.508 -6.109 c -1.672 -1.578 -3.953 -2.359 -6.242 -2.141 m 0 0" style="fill:#000;fill-opacity:0.322;stroke:none;fill-rule:nonzero"/>
 </g>
</svg>
